_inc/systems/logos/moonlight.svg

<?xml version="1.0" encoding="utf-8"?>
<svg viewBox="0 0 518.81372 123.595" height="123.595" width="518.81372" version="1.1" id="svg2" xmlns="http://www.w3.org/2000/svg">
  <path id="path106" style="fill-opacity: 1; fill-rule: nonzero; stroke: none; fill: rgb(255, 255, 255);" d="M 61.598 23.132 C 40.133 23.132 22.733 40.533 22.733 61.997 C 22.733 83.462 40.133 100.863 61.598 100.863 C 83.063 100.863 100.463 83.462 100.463 61.997 C 100.463 40.533 83.063 23.132 61.598 23.132 M 123.195 61.997 C 123.195 96.017 95.618 123.595 61.598 123.595 C 27.578 123.595 0 96.017 0 61.997 C 0 27.978 27.578 0.399 61.598 0.399 C 95.618 0.399 123.195 27.978 123.195 61.997"/>
  <path id="path108" style="fill-opacity: 1; fill-rule: nonzero; stroke: none; stroke-width: 1.25; fill: rgb(255, 255, 255);" d="M 62.788 100.863 L 59.098 100.863 L 59.098 23.131 L 62.788 23.131 Z"/>
  <path id="path110" style="fill-opacity: 1; fill-rule: nonzero; stroke: none; stroke-width: 1.25; fill: rgb(255, 255, 255);" d="M 21.859 61.403 L 100.464 61.403 L 100.464 65.093 L 21.859 65.093 Z"/>
  <path id="path114" style="fill-opacity: 1; fill-rule: nonzero; stroke: none; fill: rgb(255, 255, 255);" d="M 34.675 92.343 L 32.065 89.733 L 88.167 33.632 L 90.776 36.242 Z"/>
  <path id="path118" style="fill-opacity: 1; fill-rule: nonzero; stroke: none; fill: rgb(255, 255, 255);" d="M 89.957 88.914 L 87.347 91.524 L 32.066 36.241 L 34.675 33.631 Z"/>
  <path id="path122" style="fill-opacity: 1; fill-rule: nonzero; stroke: none; fill: rgb(255, 255, 255);" d="M 177.39 67.333 C 177.188 61.863 176.985 55.243 176.985 48.624 L 176.783 48.624 C 175.364 54.433 173.473 60.917 171.717 66.252 L 166.178 84.015 L 158.142 84.015 L 153.279 66.387 C 151.792 61.052 150.239 54.568 149.159 48.624 L 149.024 48.624 C 148.754 54.77 148.552 61.794 148.213 67.468 L 147.403 84.758 L 137.88 84.758 L 140.784 39.237 L 154.494 39.237 L 158.952 54.433 C 160.37 59.702 161.789 65.374 162.802 70.709 L 163.004 70.709 C 164.288 65.442 165.842 59.43 167.327 54.365 L 172.189 39.237 L 185.63 39.237 L 188.129 84.758 L 178.065 84.758 Z"/>
  <path id="path126" style="fill-opacity: 1; fill-rule: nonzero; stroke: none; fill: rgb(255, 255, 255);" d="M 204.815 62.132 C 204.815 71.047 209.003 77.328 215.891 77.328 C 222.848 77.328 226.832 70.71 226.832 61.862 C 226.832 53.69 222.915 46.666 215.825 46.666 C 208.867 46.666 204.815 53.285 204.815 62.132 M 237.706 61.525 C 237.706 76.451 228.656 85.501 215.352 85.501 C 201.843 85.501 193.941 75.302 193.941 62.335 C 193.941 48.692 202.653 38.493 216.093 38.493 C 230.075 38.493 237.706 48.962 237.706 61.525"/>
  <path id="path130" style="fill-opacity: 1; fill-rule: nonzero; stroke: none; fill: rgb(255, 255, 255);" d="M 253.245 62.132 C 253.245 71.047 257.434 77.328 264.321 77.328 C 271.279 77.328 275.262 70.71 275.262 61.862 C 275.262 53.69 271.345 46.666 264.255 46.666 C 257.297 46.666 253.245 53.285 253.245 62.132 M 286.136 61.525 C 286.136 76.451 277.086 85.501 263.782 85.501 C 250.274 85.501 242.371 75.302 242.371 62.335 C 242.371 48.692 251.084 38.493 264.524 38.493 C 278.505 38.493 286.136 48.962 286.136 61.525"/>
  <path id="path134" style="fill-opacity: 1; fill-rule: nonzero; stroke: none; fill: rgb(255, 255, 255);" d="M 292.895 84.758 L 292.895 39.237 L 304.916 39.237 L 314.372 55.919 C 317.073 60.714 319.775 66.387 321.801 71.52 L 322.003 71.52 C 321.328 65.509 321.126 59.363 321.126 52.542 L 321.126 39.237 L 330.581 39.237 L 330.581 84.758 L 319.775 84.758 L 310.05 67.198 C 307.348 62.335 304.376 56.459 302.147 51.123 L 301.945 51.19 C 302.215 57.202 302.35 63.618 302.35 71.048 L 302.35 84.758 Z"/>
  <path id="path138" style="fill-opacity: 1; fill-rule: nonzero; stroke: none; fill: rgb(255, 255, 255);" d="M 339.5 39.237 L 349.834 39.237 L 349.834 76.113 L 367.934 76.113 L 367.934 84.758 L 339.5 84.758 Z"/>
  <path id="path140" style="fill-opacity: 1; fill-rule: nonzero; stroke: none; stroke-width: 1.25; fill: rgb(255, 255, 255);" d="M 384.349 84.757 L 374.015 84.757 L 374.015 39.236 L 384.349 39.236 Z"/>
  <path id="path144" style="fill-opacity: 1; fill-rule: nonzero; stroke: none; fill: rgb(255, 255, 255);" d="M 431.288 82.664 C 428.114 83.744 422.103 85.231 416.093 85.231 C 407.784 85.231 401.774 83.137 397.587 79.084 C 393.398 75.167 391.103 69.224 391.169 62.537 C 391.238 47.408 402.247 38.763 417.173 38.763 C 423.048 38.763 427.573 39.912 429.803 40.993 L 427.642 49.232 C 425.143 48.152 422.036 47.274 417.038 47.274 C 408.459 47.274 401.977 52.137 401.977 61.997 C 401.977 71.386 407.853 76.923 416.296 76.923 C 418.658 76.923 420.549 76.653 421.361 76.248 L 421.361 66.726 L 414.336 66.726 L 414.336 58.688 L 431.288 58.688 Z"/>
  <path id="path148" style="fill-opacity: 1; fill-rule: nonzero; stroke: none; fill: rgb(255, 255, 255);" d="M 449.663 39.237 L 449.663 56.729 L 466.616 56.729 L 466.616 39.237 L 476.881 39.237 L 476.881 84.758 L 466.616 84.758 L 466.616 65.712 L 449.663 65.712 L 449.663 84.758 L 439.33 84.758 L 439.33 39.237 Z"/>
  <path id="path152" style="fill-opacity: 1; fill-rule: nonzero; stroke: none; fill: rgb(255, 255, 255);" d="M 494.647 47.882 L 482.424 47.882 L 482.424 39.237 L 517.409 39.237 L 517.409 47.882 L 504.982 47.882 L 504.982 84.758 L 494.647 84.758 Z"/>
</svg>

<svg xmlns="http://www.w3.org/2000/svg" viewBox="0 0 518.81 123.59"><path d="M61.6 23.13a38.87 38.87 0 1 0 0 77.73 38.87 38.87 0 0 0 0-77.73M123.2 62A61.6 61.6 0 1 1 0 62a61.6 61.6 0 0 1 123.2 0" style="fill-opacity:1;fill-rule:nonzero;stroke:none;fill:#fff"/><path d="M62.79 100.86h-3.7V23.13h3.7Z" style="fill-opacity:1;fill-rule:nonzero;stroke:none;stroke-width:1.25;fill:#fff"/><path d="M21.86 61.4h78.6v3.7h-78.6Z" style="fill-opacity:1;fill-rule:nonzero;stroke:none;stroke-width:1.25;fill:#fff"/><path d="m34.67 92.34-2.6-2.6 56.1-56.1 2.6 2.6Z" style="fill-opacity:1;fill-rule:nonzero;stroke:none;fill:#fff"/><path d="m89.96 88.91-2.61 2.61-55.28-55.28 2.6-2.6Zm87.43-21.58c-.2-5.47-.4-12.09-.4-18.7h-.2a256 256 0 0 1-5.07 17.62l-5.54 17.77h-8.04l-4.86-17.63a208 208 0 0 1-4.12-17.77h-.14c-.27 6.15-.47 13.17-.8 18.85l-.82 17.29h-9.52l2.9-45.52h13.71l4.46 15.2a228 228 0 0 1 3.85 16.27h.2a387 387 0 0 1 4.33-16.34l4.86-15.13h13.44l2.5 45.52h-10.06Zm27.43-5.2c0 8.92 4.18 15.2 11.07 15.2 6.96 0 10.94-6.62 10.94-15.47 0-8.17-3.92-15.2-11-15.2-6.96 0-11.02 6.63-11.02 15.47m32.9-.6c0 14.92-9.05 23.97-22.36 23.97-13.5 0-21.4-10.2-21.4-23.16 0-13.65 8.7-23.85 22.14-23.85 13.98 0 21.62 10.47 21.62 23.03m15.54.61c0 8.92 4.18 15.2 11.07 15.2 6.96 0 10.94-6.62 10.94-15.47 0-8.17-3.91-15.2-11-15.2-6.96 0-11.01 6.63-11.01 15.47m32.89-.6c0 14.92-9.05 23.97-22.36 23.97-13.5 0-21.4-10.2-21.4-23.16 0-13.65 8.7-23.85 22.14-23.85 13.99 0 21.62 10.47 21.62 23.03m6.76 23.24V39.24h12.02l9.45 16.68a132 132 0 0 1 7.43 15.6h.2c-.67-6.01-.87-12.16-.87-18.98v-13.3h9.45v45.52h-10.8l-9.73-17.56a169 169 0 0 1-7.9-16.08l-.2.07c.26 6.01.4 12.43.4 19.86v13.7Zm46.6-45.52h10.33V76.1h18.1v8.65H339.5Z" style="fill-opacity:1;fill-rule:nonzero;stroke:none;fill:#fff"/><path d="M384.35 84.76H374V39.24h10.34Z" style="fill-opacity:1;fill-rule:nonzero;stroke:none;stroke-width:1.25;fill:#fff"/><path d="M431.29 82.66a51 51 0 0 1-15.2 2.57c-8.3 0-14.32-2.1-18.5-6.15-4.2-3.91-6.49-9.86-6.42-16.54.07-15.13 11.08-23.78 26-23.78 5.88 0 10.4 1.15 12.63 2.23l-2.16 8.24c-2.5-1.08-5.6-1.96-10.6-1.96-8.58 0-15.06 4.87-15.06 14.73 0 9.39 5.87 14.92 14.32 14.92 2.36 0 4.25-.27 5.06-.67v-9.52h-7.02v-8.04h16.95Zm18.37-43.42v17.49h16.96v-17.5h10.26v45.53h-10.26V65.7h-16.96v19.05h-10.33V39.24Zm44.99 8.64h-12.23v-8.64h34.99v8.64h-12.43v36.88h-10.33Z" style="fill-opacity:1;fill-rule:nonzero;stroke:none;fill:#fff"/></svg>
